apps/ui-icons/svgs/activity.svg

<svg viewBox="0 0 24 24" width="24" height="24"  fill="none" xmlns="http://www.w3.org/2000/svg">
<path d="M16.8115 10.5843C17.1342 10.1361 17.0325 9.51117 16.5843 9.18847C16.1361 8.86576 15.5112 8.9675 15.1885 9.4157L13.3357 11.9889L11.6418 10.9302C10.8185 10.4157 9.74465 10.5667 9.0952 11.2883L7.25671 13.331C6.88725 13.7415 6.92053 14.3738 7.33104 14.7433C7.74155 15.1128 8.37384 15.0795 8.74329 14.669L10.5818 12.6262L12.2757 13.6849C13.1694 14.2434 14.3431 14.0127 14.9588 13.1575L16.8115 10.5843Z" fill="#171D26"/>
<path fill-rule="evenodd" clip-rule="evenodd" d="M3 9C3 5.68629 5.68629 3 9 3H15C18.3137 3 21 5.68629 21 9V15C21 18.3137 18.3137 21 15 21H9C5.68629 21 3 18.3137 3 15V9ZM19 9V15C19 17.2091 17.2091 19 15 19H9C6.79086 19 5 17.2091 5 15V9C5 6.79086 6.79086 5 9 5H15C17.2091 5 19 6.79086 19 9Z" fill="#171D26"/>
</svg>

<svg xmlns="http://www.w3.org/2000/svg" width="24" height="24" fill="none" viewBox="0 0 24 24">
  <path fill="#171D26" d="M16.811 10.584a1 1 0 1 0-1.623-1.168l-1.852 2.573-1.694-1.059a2 2 0 0 0-2.547.358l-1.838 2.043a1 1 0 0 0 1.486 1.338l1.839-2.043 1.694 1.059a2 2 0 0 0 2.683-.527l1.852-2.574Z"/>
  <path fill="#171D26" fill-rule="evenodd" d="M3 9a6 6 0 0 1 6-6h6a6 6 0 0 1 6 6v6a6 6 0 0 1-6 6H9a6 6 0 0 1-6-6V9Zm16 0v6a4 4 0 0 1-4 4H9a4 4 0 0 1-4-4V9a4 4 0 0 1 4-4h6a4 4 0 0 1 4 4Z" clip-rule="evenodd"/>
</svg>
